newicons/cines_unidos.svg

<?xml version="1.0" encoding="UTF-8" standalone="no"?>
<svg
   viewBox="0 0 48 48"
   version="1.1"
   id="svg1"
   sodipodi:docname="cines_unidos.svg"
   inkscape:version="1.3.2 (091e20ef0f, 2023-11-25)"
   xml:space="preserve"
   xmlns:inkscape="http://www.inkscape.org/namespaces/inkscape"
   xmlns:sodipodi="http://sodipodi.sourceforge.net/DTD/sodipodi-0.dtd"
   xmlns="http://www.w3.org/2000/svg"
   xmlns:svg="http://www.w3.org/2000/svg"><sodipodi:namedview
     id="namedview1"
     pagecolor="#505050"
     bordercolor="#eeeeee"
     borderopacity="1"
     inkscape:showpageshadow="0"
     inkscape:pageopacity="0"
     inkscape:pagecheckerboard="0"
     inkscape:deskcolor="#505050"
     inkscape:zoom="12.59534"
     inkscape:cx="10.360975"
     inkscape:cy="29.653825"
     inkscape:window-width="1918"
     inkscape:window-height="1053"
     inkscape:window-x="0"
     inkscape:window-y="0"
     inkscape:window-maximized="1"
     inkscape:current-layer="svg1" /><defs
     id="defs1"><style
       id="style1">.a { fill:none;stroke:#fff;stroke-linecap:round;stroke-linejoin:round; }
</style></defs><g
     id="g20"><path
       style="display:inline;fill:none;stroke:#ffffff;stroke-width:1;stroke-linecap:round;stroke-linejoin:round;stroke-opacity:1"
       d="M 45.5,24 A 21.5,21.5 0 0 1 24,45.5 21.5,21.5 0 0 1 2.5,24 21.5,21.5 0 0 1 24,2.5 21.5,21.5 0 0 1 45.5,24 Z"
       id="path19" /><g
       id="g19"><path
         style="display:inline;fill:none;stroke:#ffffff;stroke-width:1;stroke-linecap:round;stroke-linejoin:round;stroke-opacity:1"
         d="m 24,37.339766 v 3.894551"
         id="path18" /><path
         style="display:inline;fill:none;stroke:#ffffff;stroke-width:1;stroke-linecap:round;stroke-linejoin:round;stroke-opacity:1"
         d="m 24,6.7653912 1e-6,3.8945518"
         id="path17" /><path
         style="display:inline;fill:none;stroke:#ffffff;stroke-width:1;stroke-linecap:round;stroke-linejoin:round;stroke-opacity:1"
         d="M 21.352356,24.829938 H 6.824127"
         id="path16" /><path
         style="display:inline;fill:none;stroke:#ffffff;stroke-width:1;stroke-linecap:round;stroke-linejoin:round;stroke-opacity:1"
         d="M 41.175867,24.829937 H 26.658637"
         id="path15" /><path
         style="display:inline;fill:none;stroke:#ffffff;stroke-width:1;stroke-linecap:round;stroke-linejoin:round;stroke-opacity:1"
         d="M 41.233997,24 A 17.233997,17.233997 0 0 1 24,41.233997 17.233997,17.233997 0 0 1 6.7660027,24 17.233997,17.233997 0 0 1 24,6.7660027 17.233997,17.233997 0 0 1 41.233997,24 Z"
         id="path14" /></g><path
       style="display:inline;fill:none;stroke:#ffffff;stroke-width:1;stroke-linecap:round;stroke-linejoin:round;stroke-opacity:1"
       d="M 17.457551,16.00935 24.1108,13.020065 V 34.97991"
       id="polyline344" /></g></svg>

<?xml version="1.0" encoding="UTF-8"?><svg id="b" xmlns="http://www.w3.org/2000/svg" viewBox="0 0 48 48"><defs><style>.j{fill:none;stroke:#fff;stroke-linecap:round;stroke-linejoin:round;}</style></defs><path id="c" class="j" d="M45.5,24c0,11.8741-9.6259,21.5-21.5,21.5S2.5,35.8741,2.5,24,12.1259,2.5,24,2.5s21.5,9.6259,21.5,21.5Z"/><path id="d" class="j" d="M24,37.3398v3.8946"/><path id="e" class="j" d="M24,6.7654v3.8946"/><path id="f" class="j" d="M21.3524,24.8299H6.8241"/><path id="g" class="j" d="M41.1759,24.8299h-14.5172"/><path id="h" class="j" d="M41.234,24c0,9.5181-7.7159,17.234-17.234,17.234h0c-9.5181,0-17.234-7.7159-17.234-17.234h0c0-9.5181,7.7159-17.234,17.234-17.234h0c9.5181,0,17.234,7.7159,17.234,17.234h0Z"/><path id="i" class="j" d="M17.4576,16.0093l6.6532-2.9893v21.9598"/></svg>
